X:1
T:Hurst, 10.9.10.9
T:Hurst, 10.9.10.9
T:J. Hurst, 1890
T:Public Domain Courtesy of the Cyber Hymnal™
C:J. Hurst, 1890
Z:Public Domain
Z:Courtesy of the Cyber Hymnal™
%%score ( 1 2 ) ( 3 4 )
L:1/8
Q:1/4=110
M:3/4
K:Bb
V:1 treble 
V:2 treble 
V:3 bass 
V:4 bass 
V:1
 [DF]2 [DF]2 [DF]2 | [DG]3 [DG] [DG]2 | [EG]2 [DF]2 [CE]2 | [B,D]6 | [DF]2 [DF]2 [DF]2 | %5
 [DB]3 [DB] [DB]2 | (B2 A2) [EG]2 | [EF]6 | [DF]2 [DB]2 [Fd]2 | [Ee]3 [EB] [EB]2 | %10
 [EA]2 [Dd]2 [Dc]2 x | [DB]6 | [^CB]2 [CA]2 [CG]2 | [DF]3 [B,D] [B,D]2 | (C2 D2) [A,E]2 | [B,D]6 |] %16
V:2
 x6 | x6 | x6 | x6 | x6 | x6 | E4 x2 | x6 | x6 | x6 | x7 | x6 | x6 | x6 | B,4 x2 | x6 |] %16
V:3
 [B,,B,]2 [B,,B,]2 [B,,B,]2 | [G,,B,]3 [G,,B,] [G,,B,]2 | [C,B,]2 [F,A,]2 [F,,A,]2 | [B,,B,]6 | %4
 [B,,F,]2 [B,,F,]2 [B,,F,]2 | [G,,G,]3 [G,,G,] [G,,G,]2 | (G,2 C2) [C,B,]2 | [F,A,]6 | %8
 [B,,B,]2 B,2 [_A,B,]2 | [G,B,]3 [G,B,] [G,B,]2 | C3 z B, [=F,A,]2 | G,6 | %12
 [=E,G,]2 [E,A,]2 [E,B,]2 | [F,B,]3 [F,B,] [F,B,]2 | F,4 [F,,F,]2 | [B,,F,]6 |] %16
V:4
 x6 | x6 | x6 | x6 | x6 | x6 | C,4 x2 | x6 | x2 B,2 x2 | x6 | G,2 ^F,2 x3 | G,6 | x6 | x6 | %14
 F,4 x2 | x6 |] %16

